modules/hawcons-stroke/icons/icon-81-document-add.svg

<?xml version="1.0" encoding="UTF-8" standalone="no"?>
<svg width="32px" height="32px" viewBox="0 0 32 32" version="1.1" xmlns="http://www.w3.org/2000/svg" xmlns:xlink="http://www.w3.org/1999/xlink" xmlns:sketch="http://www.bohemiancoding.com/sketch/ns">
    <!-- Generator: Sketch 3.0.3 (7891) - http://www.bohemiancoding.com/sketch -->
    <title>icon 81 document add</title>
    <desc>Created with Sketch.</desc>
    <defs></defs>
    <g id="Page-1" stroke="none" stroke-width="1" fill="none" fill-rule="evenodd" sketch:type="MSPage">
        <g id="icon-81-document-add" sketch:type="MSArtboardGroup" fill="#929292">
            <path d="M20,25 L20,22 L21,22 L21,25 L24,25 L24,26 L21,26 L21,29 L20,29 L20,26 L17,26 L17,25 L20,25 L20,25 Z M16.257162,29 L5.99742191,29 C4.89092539,29 4,28.1012878 4,26.9926701 L4,4.00732994 C4,2.89833832 4.89666625,2 6.00276013,2 L16.5,2 L16.5,2 L17,2 L23,9 L23,9.5 L23,20.5997073 C24.7808383,21.5100654 26,23.3626574 26,25.5 C26,28.5375663 23.5375663,31 20.5,31 C18.7920629,31 17.2659536,30.2215034 16.257162,29 L16.257162,29 L16.257162,29 Z M15.5997095,28 L5.9999602,28 C5.45470893,28 5,27.5543187 5,27.004543 L5,3.99545703 C5,3.45526288 5.44573523,3 5.9955775,3 L16,3 L16,7.99408095 C16,9.11344516 16.8944962,10 17.9979131,10 L22,10 L22,20.2070325 C21.5231682,20.0721672 21.0200119,20 20.5,20 C17.4624337,20 15,22.4624337 15,25.5 C15,26.4002234 15.2162786,27.2499322 15.5997095,28 L15.5997095,28 L15.5997095,28 Z M17,3.5 L17,7.99121523 C17,8.54835167 17.4506511,9 17.9967388,9 L21.6999512,9 L17,3.5 L17,3.5 Z M20.5,30 C22.9852815,30 25,27.9852815 25,25.5 C25,23.0147185 22.9852815,21 20.5,21 C18.0147185,21 16,23.0147185 16,25.5 C16,27.9852815 18.0147185,30 20.5,30 L20.5,30 Z" id="document-add" sketch:type="MSShapeGroup"></path>
        </g>
    </g>
</svg>

<svg width="32" height="32" xmlns="http://www.w3.org/2000/svg"><path d="M20 25v-3h1v3h3v1h-3v3h-1v-3h-3v-1h3zm-3.743 4H5.997A2 2 0 0 1 4 26.993V4.007C4 2.898 4.897 2 6.003 2H17l6 7v11.6a5.5 5.5 0 1 1-6.743 8.4zm-.657-1H6c-.545 0-1-.446-1-.995V3.995c0-.54.446-.995.996-.995H16v4.994c0 1.12.894 2.006 1.998 2.006H22v10.207A5.5 5.5 0 0 0 15.6 28zM17 3.5v4.491c0 .557.45 1.009.997 1.009H21.7L17 3.5zM20.5 30a4.5 4.5 0 1 0 0-9 4.5 4.5 0 0 0 0 9z" fill="#929292" fill-rule="evenodd"/></svg>
